humanity-icon-theme/Humanity/apps/48/gnome-session-hibernate.svg

<?xml version="1.0" encoding="UTF-8" standalone="no"?>
<!-- Created with Inkscape (http://www.inkscape.org/) -->

<svg
   xmlns:svg="http://www.w3.org/2000/svg"
   xmlns="http://www.w3.org/2000/svg"
   xmlns:xlink="http://www.w3.org/1999/xlink"
   version="1.0"
   width="48"
   height="48"
   id="svg5555">
  <defs
     id="defs5557">
    <linearGradient
       id="linearGradient3691">
      <stop
         id="stop3693"
         style="stop-color:#ff0000;stop-opacity:1"
         offset="0" />
      <stop
         id="stop3695"
         style="stop-color:#ff0000;stop-opacity:0"
         offset="1" />
    </linearGradient>
    <linearGradient
       id="linearGradient3683">
      <stop
         id="stop3685"
         style="stop-color:#000000;stop-opacity:1"
         offset="0" />
      <stop
         id="stop3687"
         style="stop-color:#000000;stop-opacity:0"
         offset="1" />
    </linearGradient>
    <linearGradient
       id="linearGradient13678">
      <stop
         id="stop13680"
         style="stop-color:#ffffff;stop-opacity:1"
         offset="0" />
      <stop
         id="stop13682"
         style="stop-color:#ffffff;stop-opacity:0"
         offset="1" />
    </linearGradient>
    <linearGradient
       id="linearGradient3227">
      <stop
         id="stop3229"
         style="stop-color:#4d4d4d;stop-opacity:1"
         offset="0" />
      <stop
         id="stop3231"
         style="stop-color:#333333;stop-opacity:1"
         offset="1" />
    </linearGradient>
    <linearGradient
       id="linearGradient8838">
      <stop
         id="stop8840"
         style="stop-color:#000000;stop-opacity:1"
         offset="0" />
      <stop
         id="stop8842"
         style="stop-color:#000000;stop-opacity:0"
         offset="1" />
    </linearGradient>
    <linearGradient
       id="linearGradient3334-995-903-143-677-209-356-728">
      <stop
         id="stop5026"
         style="stop-color:#808080;stop-opacity:1"
         offset="0" />
      <stop
         id="stop5028"
         style="stop-color:#6d6d6d;stop-opacity:1"
         offset="0.87326682" />
      <stop
         id="stop5030"
         style="stop-color:#4f5053;stop-opacity:1"
         offset="1" />
    </linearGradient>
    <linearGradient
       id="linearGradient2480">
      <stop
         id="stop2482"
         style="stop-color:#636467;stop-opacity:1"
         offset="0" />
      <stop
         id="stop2484"
         style="stop-color:#4a4a4a;stop-opacity:1"
         offset="1" />
    </linearGradient>
    <linearGradient
       id="linearGradient3268">
      <stop
         id="stop3270"
         style="stop-color:#ffffff;stop-opacity:1"
         offset="0" />
      <stop
         id="stop3272"
         style="stop-color:#d8d8d8;stop-opacity:1"
         offset="1" />
    </linearGradient>
    <linearGradient
       id="linearGradient3996">
      <stop
         id="stop3998"
         style="stop-color:#ffffff;stop-opacity:1"
         offset="0" />
      <stop
         id="stop4000"
         style="stop-color:#ffffff;stop-opacity:0"
         offset="1" />
    </linearGradient>
    <linearGradient
       id="linearGradient3708">
      <stop
         id="stop3710"
         style="stop-color:#000000;stop-opacity:1"
         offset="0" />
      <stop
         id="stop3712"
         style="stop-color:#000000;stop-opacity:1"
         offset="1" />
    </linearGradient>
    <linearGradient
       id="linearGradient3301">
      <stop
         id="stop3303"
         style="stop-color:#ffffff;stop-opacity:0"
         offset="0" />
      <stop
         id="stop3309"
         style="stop-color:#ffffff;stop-opacity:0"
         offset="0.69999999" />
      <stop
         id="stop3305"
         style="stop-color:#000000;stop-opacity:1"
         offset="1" />
    </linearGradient>
    <radialGradient
       cx="24"
       cy="24"
       r="17"
       fx="24"
       fy="24"
       id="radialGradient3199"
       xlink:href="#linearGradient3301"
       gradientUnits="userSpaceOnUse" />
    <linearGradient
       x1="29.050154"
       y1="7.0280032"
       x2="29.050154"
       y2="26.493914"
       id="linearGradient3201"
       xlink:href="#linearGradient3708"
       gradientUnits="userSpaceOnUse"
       gradientTransform="matrix(1,0,0,-1,1e-6,47.999998)" />
    <linearGradient
       x1="24.397675"
       y1="3.6018722"
       x2="24.397675"
       y2="26.091318"
       id="linearGradient3212"
       xlink:href="#linearGradient3996"
       gradientUnits="userSpaceOnUse"
       gradientTransform="translate(-0.3976755,0.3981273)" />
    <radialGradient
       cx="27.411848"
       cy="12.080106"
       r="18.000002"
       fx="27.411848"
       fy="12.080106"
       id="radialGradient3215"
       xlink:href="#linearGradient3268"
       gradientUnits="userSpaceOnUse"
       gradientTransform="matrix(1.7637903e-8,1.7731075,-2.6591116,2.6451386e-8,59.480381,-17.99927)" />
    <linearGradient
       x1="29.050154"
       y1="7.0280032"
       x2="29.050154"
       y2="40.320171"
       id="linearGradient3217"
       xlink:href="#linearGradient2480"
       gradientUnits="userSpaceOnUse"
       gradientTransform="matrix(1.0606061,0,0,1.060606,-1.4545467,-1.4545435)" />
    <radialGradient
       cx="24.011986"
       cy="24.003313"
       r="21"
       fx="24.011986"
       fy="24.003313"
       id="radialGradient3220"
       xlink:href="#linearGradient3334-995-903-143-677-209-356-728"
       gradientUnits="userSpaceOnUse"
       gradientTransform="matrix(0.9532054,0,0,0.9532054,1.1236313,1.1232247)" />
    <linearGradient
       x1="7.5542169"
       y1="2.9999976"
       x2="7.5542169"
       y2="45.184376"
       id="linearGradient3222"
       xlink:href="#linearGradient3227"
       gradientUnits="userSpaceOnUse" />
    <radialGradient
       cx="62.625"
       cy="4.625"
       r="10.625"
       fx="62.625"
       fy="4.625"
       id="radialGradient3225"
       xlink:href="#linearGradient8838"
       gradientUnits="userSpaceOnUse"
       gradientTransform="matrix(2.1647059,0,0,0.7529402,-111.56471,36.517647)" />
    <linearGradient
       x1="40.546875"
       y1="1.125"
       x2="47.375"
       y2="37.75"
       id="linearGradient2880"
       xlink:href="#linearGradient13678"
       gradientUnits="userSpaceOnUse"
       gradientTransform="matrix(0.8942788,0,0,0.8942788,5.0323663,0.02645547)" />
    <linearGradient
       x1="40.546875"
       y1="1.125"
       x2="47.375"
       y2="37.75"
       id="linearGradient2885"
       xlink:href="#linearGradient13678"
       gradientUnits="userSpaceOnUse"
       gradientTransform="matrix(0.5078153,0,0,0.5078153,10.611614,17.531796)" />
    <linearGradient
       x1="23"
       y1="25"
       x2="39"
       y2="9"
       id="linearGradient3689"
       xlink:href="#linearGradient3683"
       gradientUnits="userSpaceOnUse" />
    <linearGradient
       x1="22.757504"
       y1="23.228237"
       x2="45.001171"
       y2="23.228237"
       id="linearGradient3697"
       xlink:href="#linearGradient3691"
       gradientUnits="userSpaceOnUse" />
  </defs>
  <path
     d="m 46.999997,40 c 0,4.418278 -10.297452,8 -23,8 -12.702548,0 -23.0000002,-3.581722 -23.0000002,-8 0,-4.418278 10.2974522,-8 23.0000002,-8 12.702548,0 23,3.581722 23,8 l 0,0 z"
     id="path8836"
     style="opacity:0.3;fill:url(#radialGradient3225);fill-opacity:1;fill-rule:evenodd;stroke:none;stroke-width:0.99999988;marker:none;visibility:visible;display:inline;overflow:visible" />
  <path
     d="M 44.5,23.999273 C 44.5,35.321475 35.32116,44.5 24.000257,44.5 12.678317,44.5 3.5,35.321371 3.5,23.999273 3.5,12.67759 12.678317,3.499998 24.000257,3.499998 35.32116,3.499998 44.5,12.67759 44.5,23.999273 l 0,0 z"
     id="path6495"
     style="fill:url(#radialGradient3220);fill-opacity:1;fill-rule:nonzero;stroke:url(#linearGradient3222);stroke-width:1;stroke-miterlimit:4;stroke-opacity:1;stroke-dasharray:none" />
  <path
     d="m 41.500001,23.999379 c 0,9.665293 -7.835596,17.500619 -17.49978,17.500619 -9.665072,0 -17.5002223,-7.835415 -17.5002223,-17.500619 0,-9.664851 7.8351503,-17.4993792 17.5002223,-17.4993792 9.664184,0 17.49978,7.8345282 17.49978,17.4993792 l 0,0 0,0 0,0 z"
     id="path3215"
     style="fill:url(#radialGradient3215);fill-opacity:1;fill-rule:nonzero;stroke:url(#linearGradient3217);stroke-width:0.99999994;stroke-miterlimit:4;stroke-dasharray:none" />
  <path
     d="m 43.5,23.999308 c 0,10.769898 -8.731091,19.50069 -19.499755,19.50069 -10.769651,0 -19.5002455,-8.730891 -19.5002455,-19.50069 0,-10.769404 8.7305945,-19.4993084 19.5002455,-19.4993084 C 34.768909,4.4999996 43.5,13.229904 43.5,23.999308 l 0,0 z"
     id="path3222"
     style="opacity:0.4;fill:none;stroke:url(#linearGradient3212);stroke-width:1;stroke-miterlimit:4;stroke-opacity:1;stroke-dasharray:none" />
  <path
     d="m 23.542531,38.03347 c 0,-2.76632 -0.07959,-3.11659 -0.07959,-3.11659"
     id="path2306"
     style="opacity:0.6;fill:none;stroke:#000000;stroke-width:1;stroke-linecap:round;stroke-linejoin:miter;stroke-miterlimit:4;stroke-opacity:1;stroke-dasharray:none" />
  <path
     d="M 22.978872,25.456533 33.889942,14.545464"
     id="path2312"
     style="fill:none;stroke:url(#linearGradient3689);stroke-width:0.89999998;stroke-linecap:round;stroke-linejoin:miter;stroke-miterlimit:4;stroke-opacity:1;stroke-dasharray:none" />
  <path
     d="M 40.5,24.000585 C 40.5,14.887594 33.112152,7.4999999 24.000208,7.4999999 14.887427,7.4999999 7.5,14.887677 7.5,24.000585 7.5,33.113159 14.887427,40.5 24.000208,40.5 33.112152,40.5 40.5,33.113159 40.5,24.000585 l 0,0 z"
     id="path3215-4"
     style="opacity:0.2;fill:url(#radialGradient3199);fill-opacity:1;stroke:url(#linearGradient3201);stroke-width:0.99999988;stroke-miterlimit:4;stroke-dasharray:none" />
  <g
     transform="translate(-0.934919,1.0068359)"
     id="g2872">
    <path
       d="M 47.5,3.503442 40.762237,11.5 47.5,11.5 l 0,3 -12,0 0,-1 8.343784,-9.9217439 -8.343784,0 0,-3.0782561 12,0 0,3.003442 z"
       id="path13687"
       style="font-size:10px;font-style:normal;font-variant:normal;font-weight:normal;font-stretch:normal;line-height:100%;writing-mode:lr-tb;text-anchor:start;fill:#7ea6cb;fill-opacity:1;stroke:#356ca0;stroke-width:1;stroke-linecap:butt;stroke-linejoin:miter;stroke-miterlimit:4;stroke-opacity:1;stroke-dasharray:none;font-family:Segoe" />
    <path
       d="m 46.5,13.515129 0,-1.051418 -7.069421,0 M 46.5,3.1558354 46.5,1.5 l -10,0 m 8.914139,1.662799 -8.677345,10.384354"
       id="path13676"
       style="font-size:10px;font-style:normal;font-variant:normal;font-weight:normal;font-stretch:normal;line-height:100%;writing-mode:lr-tb;text-anchor:start;opacity:0.21348314;fill:#5c8ebd;fill-opacity:1;stroke:url(#linearGradient2880);stroke-width:0.89427876px;stroke-linecap:butt;stroke-linejoin:miter;stroke-opacity:1;font-family:Segoe" />
  </g>
  <path
     d="m 35.02168,24.537057 c 2.766323,0 3.116593,-0.07959 3.116593,-0.07959"
     id="path2296"
     style="opacity:0.3;fill:none;stroke:#000000;stroke-width:1;stroke-linecap:round;stroke-linejoin:miter;stroke-miterlimit:4;stroke-opacity:1;stroke-dasharray:none" />
  <path
     d="m 9.861727,24.537057 c 2.766321,0 3.11659,-0.07959 3.11659,-0.07959"
     id="path2291"
     style="opacity:0.5;fill:none;stroke:#000000;stroke-width:1;stroke-linecap:round;stroke-linejoin:miter;stroke-miterlimit:4;stroke-opacity:1;stroke-dasharray:none" />
  <path
     d="m 23.495258,13.08365 c 0.08389,-2.765086 0.01496,-3.1176116 0.01496,-3.1176116"
     id="path2308"
     style="opacity:0.4;fill:none;stroke:#000000;stroke-width:1;stroke-linecap:round;stroke-linejoin:miter;stroke-miterlimit:4;stroke-opacity:1;stroke-dasharray:none" />
  <path
     d="M 24.75041,25.537057 17.462943,18.249591"
     id="path2314"
     style="fill:none;stroke:#000000;stroke-width:0.89999998;stroke-linecap:round;stroke-linejoin:miter;stroke-miterlimit:4;stroke-opacity:1;stroke-dasharray:none" />
  <path
     d="M 23.220446,24.892862 35.645373,21.563613"
     id="path2316"
     style="fill:#ff0000;fill-rule:evenodd;stroke:url(#linearGradient3697);stroke-width:0.89999998;stroke-linecap:round;stroke-linejoin:miter;stroke-miterlimit:4;stroke-opacity:1;stroke-dasharray:none" />
  <g
     id="g2891">
    <path
       d="m 35.565081,19.506199 -4.664296,5.000637 4.664296,0 0,2 -8,0 0,-1.244258 5.329815,-5.713896 -5.329815,0 0,-2.041846 8,0 0,1.999363 z"
       id="path13696"
       style="font-size:10px;font-style:normal;font-variant:normal;font-weight:normal;font-stretch:normal;line-height:100%;writing-mode:lr-tb;text-anchor:start;fill:#98b8d5;fill-opacity:1;stroke:#356ca0;stroke-width:1;stroke-linecap:butt;stroke-linejoin:miter;stroke-miterlimit:4;stroke-opacity:1;stroke-dasharray:none;font-family:Segoe" />
    <path
       d="m 34.565081,25.506836 c -1.84377,0.0419 -4.087433,-0.02313 -5.881031,-0.02313 l 5.881031,-6.316287 0,-0.660583 -6,0"
       id="path13700"
       style="font-size:10px;font-style:normal;font-variant:normal;font-weight:normal;font-stretch:normal;line-height:100%;writing-mode:lr-tb;text-anchor:start;opacity:0.21348314;fill:none;stroke:url(#linearGradient2885);stroke-width:0.89399999;stroke-linecap:square;stroke-linejoin:miter;stroke-miterlimit:4;stroke-opacity:1;stroke-dasharray:none;font-family:Segoe" />
  </g>
</svg>

<?xml version="1.0" encoding="UTF-8" standalone="no"?>
<!-- Created with Inkscape (http://www.inkscape.org/) -->
<svg id="svg5555" xmlns="http://www.w3.org/2000/svg" height="48" width="48" version="1.0" xmlns:xlink="http://www.w3.org/1999/xlink">
 <defs id="defs5557">
  <linearGradient id="linearGradient13678">
   <stop id="stop13680" style="stop-color:#fff" offset="0"/>
   <stop id="stop13682" style="stop-color:#fff;stop-opacity:0" offset="1"/>
  </linearGradient>
  <radialGradient id="radialGradient3199" gradientUnits="userSpaceOnUse" cy="24" cx="24" r="17">
   <stop id="stop3303" style="stop-color:#fff;stop-opacity:0" offset="0"/>
   <stop id="stop3309" style="stop-color:#fff;stop-opacity:0" offset="0.7"/>
   <stop id="stop3305" offset="1"/>
  </radialGradient>
  <linearGradient id="linearGradient3201" y2="26.494" gradientUnits="userSpaceOnUse" x2="29.05" gradientTransform="matrix(1 0 0 -1 .000001 48)" y1="7.028" x1="29.05">
   <stop id="stop3710" offset="0"/>
   <stop id="stop3712" offset="1"/>
  </linearGradient>
  <linearGradient id="linearGradient3212" y2="26.091" gradientUnits="userSpaceOnUse" x2="24.398" gradientTransform="translate(-.39768 .39813)" y1="3.6019" x1="24.398">
   <stop id="stop3998" style="stop-color:#fff" offset="0"/>
   <stop id="stop4000" style="stop-color:#fff;stop-opacity:0" offset="1"/>
  </linearGradient>
  <radialGradient id="radialGradient3215" gradientUnits="userSpaceOnUse" cy="12.08" cx="27.412" gradientTransform="matrix(1.7638e-8 1.7731 -2.6591 2.6451e-8 59.48 -17.999)" r="18">
   <stop id="stop3270" style="stop-color:#fff" offset="0"/>
   <stop id="stop3272" style="stop-color:#d8d8d8" offset="1"/>
  </radialGradient>
  <linearGradient id="linearGradient3217" y2="40.32" gradientUnits="userSpaceOnUse" x2="29.05" gradientTransform="matrix(1.0606 0 0 1.0606 -1.4545 -1.4545)" y1="7.028" x1="29.05">
   <stop id="stop2482" style="stop-color:#636467" offset="0"/>
   <stop id="stop2484" style="stop-color:#4a4a4a" offset="1"/>
  </linearGradient>
  <radialGradient id="radialGradient3220" gradientUnits="userSpaceOnUse" cy="24.003" cx="24.012" gradientTransform="matrix(.95321 0 0 .95321 1.1236 1.1232)" r="21">
   <stop id="stop5026" style="stop-color:#808080" offset="0"/>
   <stop id="stop5028" style="stop-color:#6d6d6d" offset=".87327"/>
   <stop id="stop5030" style="stop-color:#4f5053" offset="1"/>
  </radialGradient>
  <linearGradient id="linearGradient3222" y2="45.184" gradientUnits="userSpaceOnUse" x2="7.5542" y1="3" x1="7.5542">
   <stop id="stop3229" style="stop-color:#4d4d4d" offset="0"/>
   <stop id="stop3231" style="stop-color:#333" offset="1"/>
  </linearGradient>
  <radialGradient id="radialGradient3225" gradientUnits="userSpaceOnUse" cy="4.625" cx="62.625" gradientTransform="matrix(2.1647 0 0 .75294 -111.56 36.518)" r="10.625">
   <stop id="stop8840" offset="0"/>
   <stop id="stop8842" style="stop-opacity:0" offset="1"/>
  </radialGradient>
  <linearGradient id="linearGradient2880" y2="37.75" xlink:href="#linearGradient13678" gradientUnits="userSpaceOnUse" x2="47.375" gradientTransform="matrix(.89428 0 0 .89428 5.0324 .026455)" y1="1.125" x1="40.547"/>
  <linearGradient id="linearGradient2885" y2="37.75" xlink:href="#linearGradient13678" gradientUnits="userSpaceOnUse" x2="47.375" gradientTransform="matrix(.50782 0 0 .50782 10.612 17.532)" y1="1.125" x1="40.547"/>
  <linearGradient id="linearGradient3689" y2="9" gradientUnits="userSpaceOnUse" x2="39" y1="25" x1="23">
   <stop id="stop3685" offset="0"/>
   <stop id="stop3687" style="stop-opacity:0" offset="1"/>
  </linearGradient>
  <linearGradient id="linearGradient3697" y2="23.228" gradientUnits="userSpaceOnUse" x2="45.001" y1="23.228" x1="22.758">
   <stop id="stop3693" style="stop-color:#f00" offset="0"/>
   <stop id="stop3695" style="stop-color:#f00;stop-opacity:0" offset="1"/>
  </linearGradient>
 </defs>
 <path id="path8836" style="opacity:.3;fill-rule:evenodd;fill:url(#radialGradient3225)" d="m47 40c0 4.4183-10.297 8-23 8s-23-3.5817-23-8 10.297-8 23-8 23 3.5817 23 8z"/>
 <path id="path6495" style="stroke:url(#linearGradient3222);fill:url(#radialGradient3220)" d="m44.5 23.999c0 11.322-9.179 20.501-20.5 20.501-11.322 0-20.5-9.179-20.5-20.501 0-11.321 9.178-20.499 20.5-20.499 11.321 0 20.5 9.178 20.5 20.499z"/>
 <path id="path3215" style="stroke:url(#linearGradient3217);fill:url(#radialGradient3215)" d="m41.5 23.999c0 9.6653-7.8356 17.501-17.5 17.501-9.6651 0-17.5-7.8354-17.5-17.501 0-9.6649 7.8352-17.499 17.5-17.499 9.6642 0 17.5 7.8345 17.5 17.499z"/>
 <path id="path3222" style="opacity:.4;stroke:url(#linearGradient3212);fill:none" d="m43.5 23.999c0 10.77-8.7311 19.501-19.5 19.501-10.77 0-19.5-8.7309-19.5-19.501 0-10.769 8.7306-19.499 19.5-19.499s19.5 8.73 19.5 19.499z"/>
 <path id="path2306" style="opacity:.6;stroke:#000;stroke-linecap:round;fill:none" d="m23.543 38.033c0-2.7663-0.07959-3.1166-0.07959-3.1166"/>
 <path id="path2312" style="stroke:url(#linearGradient3689);stroke-linecap:round;stroke-width:0.9;fill:none" d="m22.979 25.457 10.911-10.912"/>
 <path id="path3215-4" style="opacity:.2;stroke:url(#linearGradient3201);fill:url(#radialGradient3199)" d="m40.5 24.001c0-9.113-7.388-16.501-16.5-16.501-9.113 0-16.5 7.388-16.5 16.501 0 9.112 7.387 16.499 16.5 16.499 9.112 0 16.5-7.387 16.5-16.499z"/>
 <g id="g2872" transform="translate(-.93492 1.0068)">
  <path id="path13687" style="stroke:#356ca0;fill:#7ea6cb" d="m47.5 3.5034-6.738 7.9966h6.738v3h-12v-1l8.3438-9.9217h-8.3438v-3.0783h12v3.0034z"/>
  <path id="path13676" style="opacity:.21348;stroke:url(#linearGradient2880);stroke-width:.89428px;fill:#5c8ebd" d="m46.5 13.515v-1.0514h-7.0694m7.069-9.3082v-1.6558h-10m8.9141 1.6628-8.6773 10.384"/>
 </g>
 <path id="path2296" style="opacity:.3;stroke:#000;stroke-linecap:round;fill:none" d="m35.022 24.537c2.7663 0 3.1166-0.07959 3.1166-0.07959"/>
 <path id="path2291" style="opacity:.5;stroke:#000;stroke-linecap:round;fill:none" d="m9.8617 24.537c2.7663 0 3.1166-0.07959 3.1166-0.07959"/>
 <path id="path2308" style="opacity:.4;stroke:#000;stroke-linecap:round;fill:none" d="m23.495 13.084c0.08389-2.7651 0.01496-3.1176 0.01496-3.1176"/>
 <path id="path2314" style="stroke:#000;stroke-linecap:round;stroke-width:0.9;fill:none" d="m24.75 25.537-7.287-7.287"/>
 <path id="path2316" style="fill-rule:evenodd;stroke:url(#linearGradient3697);stroke-linecap:round;stroke-width:0.9;fill:#f00" d="m23.22 24.893 12.425-3.329"/>
 <g id="g2891">
  <path id="path13696" style="stroke:#356ca0;fill:#98b8d5" d="m35.565 19.506-4.6643 5.0006h4.6643v2h-8v-1.2443l5.3298-5.7139h-5.3298v-2.0418h8v1.9994z"/>
  <path id="path13700" style="opacity:.21348;stroke:url(#linearGradient2885);stroke-linecap:square;stroke-width:0.894;fill:none" d="m34.565 25.507c-1.8438 0.0419-4.0874-0.02313-5.881-0.02313l5.881-6.3163v-0.66058h-6"/>
 </g>
</svg>
